X:362
T: Es fliegen's aus drei Tauben (4-61), S. 79
N: P0622
O: Lothringen
S: PINCK, Louis: Verklingende Weisen Bd 4, Kassel 1939]
R: Liebesklage, Liebe]
M: 3/4
L: 1/8
K: G
D2 | G4A2 | _B2G2c2 | _BAG2
B2 | A4A2 | G2D2G2 | A4
G2 | _B3Bcc | dc_BdcA | A4
d2 | G4AG | =F4
A2 | c3AA2 | _B4A2 | G4

@@@ Tune index: 7912
